X: 86
T: Le Tambourin de Chartre
%R: march
B: Stewart "A Select Collection of Airs, Jigs, Marches and Reels", ca.1784, p.42 #86
F: http://imslp.org/wiki/A_Select_Collection_of_Airs,_Jigs,_Marches_and_Reels_%28Various%29
Z: 2017 John Chambers <jc:trillian.mit.edu>
N: Last note of bar 13 illegible; transcribed as D to match bar 28.
N: Last note of bar 27 illegible; transcribed as G to match bars 3, 11.
M: 2/2	% The book has just "2".
L: 1/8
K: G
GA |\
B4 B2AB | c4 TB4 | A4 G4 | D6 D2 |\
EDEF E2D2 | EDEF E2D2 | c4 B4 | A6 GA |\
B4 B2AB | c4 TB4 |
A4 G4 | D6 D2 |\
EDEF E2D2 | EDEF E2c2 | B4 TA4 | G6 :: d2 |\
c2B2 A2G2 | AGAB A2d2 | Tc2B2 TA2G2 | TA4 A2d2 |
Tc2B2 A2G2 | AGAB A2d2 | Tc2B2A2G2 | A4 A2GA |\
B4 B2AB | c4 TB4 | A4 G4 | D6 D2 |\
EDEF E2D2 | EDEF E2D2 |
c4 B4 | A6 GA |\
B4 B2AB | c4 TB4 | A4 G4 | D6 D2 |\
EDEF E2D2 | EDEF E2c2 | B4TA4 | G6 :|

%%sep 1 1 500
%%sep 1 1 500

